dist/images/service/4.svg

<svg width="62" height="62" viewBox="0 0 62 62" fill="none" xmlns="http://www.w3.org/2000/svg">
<path d="M62.0001 61.9998H0.805054C0.335128 61.9998 0 61.6897 0 61.2559C0 60.8217 0.335595 60.5121 0.805054 60.5121H60.4568V51.6459C60.4568 49.4757 59.853 47.4302 58.7123 45.7561C58.0411 44.764 57.2361 43.9583 56.3636 43.2763C52.2705 40.2382 41.6016 34.9061 41.5345 34.8444C41.132 34.6584 40.9976 34.2242 41.1989 33.8523C41.4002 33.4803 41.8701 33.3562 42.2726 33.5422C42.6756 33.79 53.1431 39.0601 57.3701 42.1601C58.4438 42.904 59.3157 43.8961 60.0538 45.0123C61.3288 46.9342 61.9995 49.2281 61.9995 51.6465L62.0001 61.9998Z" fill="#0038FF"/>
<path d="M0.805053 61.9997C0.335128 61.9997 0 61.6896 0 61.2558V51.6458C0 49.2278 0.67119 46.9339 1.94565 45.0116C2.68377 43.8958 3.62315 42.9656 4.6294 42.1594C8.8568 39.0594 19.2571 33.7892 19.7268 33.5415C20.1294 33.3555 20.5993 33.4796 20.8005 33.8515C21.0018 34.2235 20.8675 34.6577 20.465 34.8436C20.3306 34.9055 9.66189 40.2375 5.63591 43.2756C4.76347 43.9576 3.95842 44.7637 3.28718 45.7553C2.14654 47.4294 1.54271 49.4755 1.54271 51.6452V61.2552C1.54318 61.6894 1.20758 61.9995 0.805065 61.9995L0.805053 61.9997Z" fill="#0038FF"/>
<path d="M30.9997 40.2376C22.1423 40.2376 14.9629 32.0535 14.9629 22.0718C14.9629 19.7157 15.3654 17.4218 16.1035 15.2516C16.2379 14.8797 16.7073 14.6314 17.1098 14.7555C17.5123 14.8797 17.781 15.3134 17.6467 15.6854C16.9086 17.7313 16.573 19.8393 16.573 22.0713C16.573 31.3093 23.0148 38.8112 30.9994 38.8112C38.9844 38.8112 45.4259 31.309 45.4259 22.0713C45.4259 19.8393 45.0903 17.7315 44.3522 15.6854C44.2179 15.3134 44.4191 14.8792 44.889 14.7555C45.2916 14.6314 45.7615 14.8174 45.8953 15.2516C46.7004 17.4218 47.036 19.7156 47.036 22.0718C47.0369 32.0532 39.8575 40.2376 31.0003 40.2376H30.9997Z" fill="#0038FF"/>
<path d="M44.42 13.02H17.5801V5.02185C17.5801 2.29376 19.9957 0 23.015 0H38.9848C42.0041 0 44.4197 2.29387 44.4197 5.02185L44.42 13.02ZM19.1234 11.5937H42.8096V5.02185C42.8096 3.03764 41.0651 1.42588 38.9178 1.42588H23.0152C20.8677 1.42588 19.1234 3.03775 19.1234 5.02185V11.5937Z" fill="#0038FF"/>
<path d="M25.9683 44.0195C25.9683 44.6358 25.4277 45.1353 24.7608 45.1353C24.0933 45.1353 23.5527 44.6358 23.5527 44.0195C23.5527 43.4028 24.0933 42.9033 24.7608 42.9033C25.4278 42.9033 25.9683 43.4028 25.9683 44.0195Z" fill="#0038FF"/>
<path d="M25.9683 50.2197C25.9683 50.836 25.4277 51.3355 24.7608 51.3355C24.0933 51.3355 23.5527 50.836 23.5527 50.2197C23.5527 49.603 24.0933 49.1035 24.7608 49.1035C25.4278 49.1035 25.9683 49.603 25.9683 50.2197Z" fill="#0038FF"/>
<path d="M25.9683 56.1714C25.9683 56.7877 25.4277 57.2877 24.7608 57.2877C24.0933 57.2877 23.5527 56.7877 23.5527 56.1714C23.5527 55.5552 24.0933 55.0557 24.7608 55.0557C25.4278 55.0557 25.9683 55.5552 25.9683 56.1714Z" fill="#0038FF"/>
<path d="M38.4488 44.0195C38.4488 44.6358 37.9082 45.1353 37.2408 45.1353C36.5738 45.1353 36.0332 44.6358 36.0332 44.0195C36.0332 43.4028 36.5738 42.9033 37.2408 42.9033C37.9082 42.9033 38.4488 43.4028 38.4488 44.0195Z" fill="#0038FF"/>
<path d="M38.4488 50.2197C38.4488 50.836 37.9082 51.3355 37.2408 51.3355C36.5738 51.3355 36.0332 50.836 36.0332 50.2197C36.0332 49.603 36.5738 49.1035 37.2408 49.1035C37.9082 49.1035 38.4488 49.603 38.4488 50.2197Z" fill="#0038FF"/>
<path d="M38.4488 56.1714C38.4488 56.7877 37.9082 57.2877 37.2408 57.2877C36.5738 57.2877 36.0332 56.7877 36.0332 56.1714C36.0332 55.5552 36.5738 55.0557 37.2408 55.0557C37.9082 55.0557 38.4488 55.5552 38.4488 56.1714Z" fill="#0038FF"/>
<path d="M31.0004 61.9996C30.5304 61.9996 30.1953 61.6895 30.1953 61.2557V39.4939C30.1953 39.0597 30.5309 38.75 31.0004 38.75C31.4703 38.75 31.8054 39.0601 31.8054 39.4939V61.2557C31.8054 61.6899 31.4703 62 31.0004 62V61.9996Z" fill="#0038FF"/>
</svg>

<svg width="62" height="62" fill="none" xmlns="http://www.w3.org/2000/svg"><path d="M62 62H.805C.335 62 0 61.69 0 61.256s.336-.744.805-.744h59.652v-8.866c0-2.17-.604-4.216-1.745-5.89-.67-.992-1.476-1.798-2.348-2.48-4.093-3.038-14.762-8.37-14.83-8.432a.697.697 0 01-.335-.992c.201-.372.671-.496 1.074-.31.403.248 10.87 5.518 15.097 8.618 1.074.744 1.946 1.736 2.684 2.852 1.275 1.922 1.945 4.216 1.945 6.635L62 62z" fill="#0038FF"/><path d="M.805 62C.335 62 0 61.69 0 61.256v-9.61c0-2.418.671-4.712 1.946-6.634.738-1.116 1.677-2.046 2.683-2.853 4.228-3.1 14.628-8.37 15.098-8.617.402-.187.872-.062 1.073.31a.697.697 0 01-.335.992c-.134.062-10.803 5.393-14.83 8.432a10.896 10.896 0 00-2.348 2.48c-1.14 1.673-1.744 3.72-1.744 5.89v9.61a.73.73 0 01-.738.743z" fill="#0038FF"/><path d="M31 40.238c-8.858 0-16.037-8.184-16.037-18.166 0-2.356.402-4.65 1.14-6.82.135-.372.604-.62 1.007-.497.402.125.671.558.537.93-.738 2.046-1.074 4.154-1.074 6.386 0 9.238 6.442 16.74 14.426 16.74 7.985 0 14.427-7.502 14.427-16.74 0-2.232-.336-4.34-1.074-6.386-.134-.372.067-.806.537-.93.403-.124.872.062 1.006.497.805 2.17 1.141 4.464 1.141 6.82 0 9.981-7.178 18.166-16.036 18.166zM44.42 13.02H17.58V5.022C17.58 2.294 19.996 0 23.015 0h15.97c3.02 0 5.435 2.294 5.435 5.022v7.998zm-25.297-1.426H42.81V5.022c0-1.984-1.745-3.596-3.892-3.596H23.015c-2.147 0-3.892 1.612-3.892 3.596v6.572zm6.845 32.426c0 .616-.54 1.115-1.207 1.115-.668 0-1.208-.5-1.208-1.115 0-.617.54-1.117 1.208-1.117.667 0 1.207.5 1.207 1.117zm0 6.2c0 .616-.54 1.116-1.207 1.116-.668 0-1.208-.5-1.208-1.116 0-.617.54-1.117 1.208-1.117.667 0 1.207.5 1.207 1.117zm0 5.951c0 .617-.54 1.117-1.207 1.117-.668 0-1.208-.5-1.208-1.117 0-.616.54-1.115 1.208-1.115.667 0 1.207.5 1.207 1.115zM38.449 44.02c0 .616-.54 1.115-1.208 1.115-.667 0-1.208-.5-1.208-1.115 0-.617.54-1.117 1.208-1.117.667 0 1.208.5 1.208 1.117zm0 6.2c0 .616-.54 1.116-1.208 1.116-.667 0-1.208-.5-1.208-1.116 0-.617.54-1.117 1.208-1.117.667 0 1.208.5 1.208 1.117zm0 5.951c0 .617-.54 1.117-1.208 1.117-.667 0-1.208-.5-1.208-1.117 0-.616.54-1.115 1.208-1.115.667 0 1.208.5 1.208 1.115z" fill="#0038FF"/><path d="M31 62c-.47 0-.805-.31-.805-.744V39.494c0-.434.336-.744.805-.744.47 0 .805.31.805.744v21.762c0 .434-.335.744-.805.744z" fill="#0038FF"/></svg>
